svgs/skillshare.svg

<svg width="192" height="192" viewBox="0 0 192 192" fill="none" xmlns="http://www.w3.org/2000/svg">
<path d="M37.9012 66.3767C37.9012 59.2078 21 59.2078 21 66.3767C21 73.5457 31.4007 74.1431 31.4007 74.1431C35.951 74.7406 38.5512 76.5328 37.9012 81.3121C37.0142 87.833 21 87.2863 21 81.3121" stroke="black" stroke-width="10" stroke-linecap="round" stroke-linejoin="round"/>
<path d="M50.9091 86.4848L50.9091 60.697M66.0455 60.697L56.5151 73.5909L66.0455 86.4848" stroke="black" stroke-width="10" stroke-linecap="round" stroke-linejoin="round"/>
<path d="M79 61L79 86.7879" stroke="black" stroke-width="10" stroke-linecap="round" stroke-linejoin="round"/>
<path d="M92 61V86.7879H107.697" stroke="black" stroke-width="10" stroke-linecap="round" stroke-linejoin="round"/>
<path d="M120.303 60.697V86.4848H136" stroke="black" stroke-width="10" stroke-linecap="round" stroke-linejoin="round"/>
<path d="M117 107V123.714M117 133V123.714M117 123.714C117 112.571 123.5 108.238 130 109.476" stroke="black" stroke-width="10" stroke-linecap="round" stroke-linejoin="round"/>
<path d="M37.9012 112.592C37.9012 105.136 21 105.136 21 112.592C21 120.048 31.4007 120.669 31.4007 120.669C35.951 121.29 38.5512 123.154 37.9012 128.125C37.0142 134.906 21 134.338 21 128.125" stroke="black" stroke-width="10" stroke-linecap="round" stroke-linejoin="round"/>
<path d="M104 107V132.788M101.242 119.227C101.242 125.11 96.9756 132.788 91.7121 132.788C86.4487 132.788 82.1818 125.11 82.1818 119.227C82.1818 113.345 86.4487 107 91.7121 107C96.9756 107 101.242 113.345 101.242 119.227Z" stroke="black" stroke-width="10" stroke-linecap="round"/>
<path d="M51 132.788V118.773M51 107V118.773M51 118.773H69.5V107V132.788" stroke="black" stroke-width="10" stroke-linecap="round" stroke-linejoin="round"/>
<path d="M173.5 130.758C173.5 132.473 172.109 133.864 170.394 133.864C168.679 133.864 167.288 132.473 167.288 130.758C167.288 129.042 168.679 127.652 170.394 127.652C172.109 127.652 173.5 129.042 173.5 130.758Z" stroke="black" stroke-width="5"/>
<path d="M81.7121 49.6061C81.7121 51.3215 80.3215 52.7121 78.6061 52.7121C76.8906 52.7121 75.5 51.3215 75.5 49.6061C75.5 47.8906 76.8906 46.5 78.6061 46.5C80.3215 46.5 81.7121 47.8906 81.7121 49.6061Z" stroke="black" stroke-width="5"/>
<path d="M138 120C138 127.18 142.925 133 149 133C151.883 133 155.529 132.543 158 130.824M138 120C138 112.82 142.925 107 149 107C155.075 107 160 112.82 160 120H138Z" stroke="black" stroke-width="10" stroke-linecap="round" stroke-linejoin="round"/>
</svg>

<svg width="192" height="192" viewBox="0 0 192 192" fill="none" xmlns="http://www.w3.org/2000/svg"><path d="M37.901 66.377c0-7.17-16.901-7.17-16.901 0 0 7.169 10.4 7.766 10.4 7.766 4.551.598 7.151 2.39 6.501 7.17-.887 6.52-16.901 5.973-16.901 0M50.91 86.485V60.697m15.136 0-9.53 12.894 9.53 12.894M79 61v25.788M92 61v25.788h15.697M120.303 60.697v25.788H136M117 107v16.714m0 9.286v-9.286m0 0c0-11.143 6.5-15.476 13-14.238M37.901 112.592c0-7.456-16.901-7.456-16.901 0s10.4 8.077 10.4 8.077c4.551.621 7.151 2.485 6.501 7.456-.887 6.781-16.901 6.213-16.901 0" stroke="#000" stroke-width="10" stroke-linecap="round" stroke-linejoin="round"/><path d="M104 107v25.788m-2.758-13.561c0 5.883-4.266 13.561-9.53 13.561-5.263 0-9.53-7.678-9.53-13.561 0-5.882 4.267-12.227 9.53-12.227 5.264 0 9.53 6.345 9.53 12.227Z" stroke="#000" stroke-width="10" stroke-linecap="round"/><path d="M51 132.788v-14.015M51 107v11.773m0 0h18.5V107v25.788" stroke="#000" stroke-width="10" stroke-linecap="round" stroke-linejoin="round"/><path d="M173.5 130.758a3.107 3.107 0 1 1-6.213-.001 3.107 3.107 0 0 1 6.213.001ZM81.712 49.606a3.106 3.106 0 1 1-6.212 0 3.106 3.106 0 0 1 6.212 0Z" stroke="#000" stroke-width="5"/><path d="M138 120c0 7.18 4.925 13 11 13 2.883 0 6.529-.457 9-2.176M138 120c0-7.18 4.925-13 11-13s11 5.82 11 13h-22Z" stroke="#000" stroke-width="10" stroke-linecap="round" stroke-linejoin="round"/></svg>
